assets/images/Icon.svg

<svg width="32" height="32" viewBox="0 0 32 32" fill="none" xmlns="http://www.w3.org/2000/svg">
<g clip-path="url(#clip0_120_581)">
<path d="M29.9201 13.0693L24.451 7.05913C23.3688 5.97695 21.6059 5.97552 20.5136 7.06786C20.1674 7.41402 19.9318 7.82856 19.8096 8.27079C18.7216 7.43734 17.1522 7.52025 16.1499 8.52245C15.8163 8.85631 15.5735 9.26986 15.4445 9.72388C14.3565 8.89336 12.787 8.97477 11.7863 9.97698C11.4474 10.3159 11.2147 10.7202 11.0881 11.1508L8.51064 8.57331C7.42846 7.49113 5.66555 7.4897 4.57321 8.58204C3.48959 9.66422 3.48959 11.4272 4.57321 12.5108L14.4757 22.4133L8.60228 23.3355C7.01535 23.5624 5.81828 24.9413 5.81828 26.5457C5.81828 27.7486 6.79717 28.7275 8.0001 28.7275H21.715C23.8518 28.7275 25.8605 27.8955 27.3717 26.3842L29.6597 24.0962C31.1695 22.5878 32 20.5806 32 18.4467C32 16.454 31.2612 14.5442 29.9201 13.0693ZM28.6313 23.0678L26.3433 25.3558C25.107 26.5922 23.4633 27.2729 21.7149 27.2729H8.00003C7.59857 27.2729 7.27273 26.947 7.27273 26.5456C7.27273 25.6612 7.93307 24.9005 8.81889 24.774L16.1135 23.6278C16.384 23.5855 16.6066 23.395 16.6924 23.1347C16.7767 22.8758 16.7084 22.5892 16.5149 22.3958L5.60153 11.4824C5.08519 10.966 5.08519 10.1253 5.60882 9.6002C5.85747 9.35219 6.19439 9.21303 6.54557 9.21327C6.88451 9.21327 7.22337 9.34275 7.48232 9.60163L14.7594 16.8788C15.0431 17.1624 15.5042 17.1624 15.7878 16.8788C15.9289 16.7362 16.0002 16.5501 16.0002 16.3639C16.0002 16.1777 15.929 15.9915 15.7864 15.849L12.8148 12.8773C12.2984 12.361 12.2984 11.5217 12.8235 10.9966C13.3384 10.4817 14.1806 10.4817 14.6955 10.9966L17.6686 13.9697C17.9522 14.2533 18.4133 14.2533 18.6969 13.9697C18.833 13.8328 18.9093 13.6477 18.9093 13.4547C18.9093 13.2685 18.8381 13.0824 18.6955 12.9398L17.1784 11.4227C16.6621 10.9064 16.6621 10.0671 17.1871 9.54197C17.702 9.02706 18.5442 9.02706 19.0591 9.54197L20.5835 11.0663C20.5864 11.0678 20.5849 11.0678 20.5849 11.0678L20.5863 11.0692L20.5878 11.0706L20.5892 11.0721H20.5906L20.5921 11.0735C20.8771 11.344 21.3281 11.3382 21.6059 11.059C21.8895 10.7753 21.8895 10.3142 21.6059 10.0306L21.5433 9.96808C21.2932 9.71788 21.155 9.38475 21.155 9.03129C21.155 8.67784 21.2917 8.3462 21.5506 8.08731C22.0685 7.5724 22.9063 7.57384 23.3994 8.06256L28.8452 14.0481C29.9404 15.254 30.5455 16.8162 30.5455 18.4467C30.5455 20.1922 29.8662 21.8329 28.6313 23.0678Z" fill="#E30000"/>
<path d="M12.5033 7.85896C11.4444 5.51568 9.10548 4 6.54546 4C2.93673 4 0 6.93673 0 10.5455C0 13.1055 1.51561 15.4444 3.85889 16.5048C3.95632 16.5484 4.05819 16.5688 4.15855 16.5688C4.43489 16.5688 4.69964 16.4088 4.82182 16.1412C4.98621 15.7746 4.82325 15.344 4.45821 15.1782C2.63421 14.3535 1.45459 12.5353 1.45459 10.5455C1.45459 7.73821 3.73821 5.45452 6.54553 5.45452C8.53535 5.45452 10.3536 6.63414 11.1783 8.45814C11.3427 8.82468 11.7747 8.98907 12.1397 8.82175C12.5062 8.656 12.6691 8.2255 12.5033 7.85896Z" fill="#E30000"/>
</g>
<defs>
<clipPath id="clip0_120_581">
<rect width="32" height="32" fill="white"/>
</clipPath>
</defs>
</svg>

<svg xmlns="http://www.w3.org/2000/svg" width="32" height="32" fill="none"><g fill="#E30000" clip-path="url(#a)"><path d="m29.92 13.07-5.469-6.01a2.784 2.784 0 0 0-4.641 1.21 2.786 2.786 0 0 0-4.365 1.454 2.787 2.787 0 0 0-4.357 1.427L8.511 8.573a2.784 2.784 0 0 0-3.938 3.938l9.903 9.902-5.874.922a3.26 3.26 0 0 0-2.784 3.21c0 1.204.98 2.182 2.182 2.182h13.715a7.95 7.95 0 0 0 5.657-2.343l2.288-2.288a7.93 7.93 0 0 0 2.34-5.65 7.98 7.98 0 0 0-2.08-5.377m-1.289 9.998-2.288 2.288a6.5 6.5 0 0 1-4.628 1.917H8a.73.73 0 0 1-.727-.727 1.8 1.8 0 0 1 1.546-1.772l7.294-1.146a.728.728 0 0 0 .402-1.232L5.602 11.482a1.33 1.33 0 0 1 1.88-1.88l7.277 7.277a.728.728 0 1 0 1.027-1.03l-2.971-2.972a1.327 1.327 0 0 1 .008-1.88 1.327 1.327 0 0 1 1.872 0l2.974 2.973a.728.728 0 1 0 1.026-1.03l-1.517-1.517a1.33 1.33 0 0 1 .01-1.881 1.327 1.327 0 0 1 1.871 0l1.524 1.524.002.002.001.001.002.002.001.001h.002l.001.002a.726.726 0 0 0 1.014-1.043l-.063-.063a1.32 1.32 0 0 1-.388-.937c0-.353.137-.685.396-.944.518-.515 1.355-.513 1.848-.024l5.446 5.985a6.53 6.53 0 0 1 1.7 4.399c0 1.745-.679 3.386-1.914 4.62"/><path d="M12.503 7.859A6.56 6.56 0 0 0 6.545 4 6.553 6.553 0 0 0 0 10.546a6.56 6.56 0 0 0 3.859 5.959.73.73 0 0 0 .963-.364.73.73 0 0 0-.364-.963 5.1 5.1 0 0 1-3.003-4.632 5.097 5.097 0 0 1 5.09-5.091 5.1 5.1 0 0 1 4.633 3.003.727.727 0 1 0 1.325-.6"/></g><defs><clipPath id="a"><path fill="#fff" d="M0 0h32v32H0z"/></clipPath></defs></svg>
